app/images/time-icon.svg

<svg xmlns="http://www.w3.org/2000/svg" width="12" height="12" viewBox="0 0 12 12">
    <g fill="#E5E5E5" fill-rule="evenodd">
        <path d="M6 0C2.7 0 0 2.7 0 6s2.7 6 6 6 6-2.7 6-6-2.7-6-6-6zm0 10.8c-2.64 0-4.8-2.16-4.8-4.8 0-2.64 2.16-4.8 4.8-4.8 2.64 0 4.8 2.16 4.8 4.8 0 2.64-2.16 4.8-4.8 4.8z"/>
        <path d="M6.3 3h-.9v3.6l3.12 1.92.48-.78-2.7-1.62z"/>
    </g>
</svg>

<?xml version="1.0" encoding="UTF-8"?>
<svg width="12px" height="12px" viewBox="0 0 12 12" version="1.1" xmlns="http://www.w3.org/2000/svg" xmlns:xlink="http://www.w3.org/1999/xlink">
    <!-- Generator: Sketch 45.2 (43514) - http://www.bohemiancoding.com/sketch -->
    <title>Shape</title>
    <desc>Created with Sketch.</desc>
    <defs></defs>
    <g id="Page-1" stroke="none" stroke-width="1" fill="none" fill-rule="evenodd">
        <g id="5_2_Event-Page---DONE" transform="translate(-110.000000, -884.000000)" fill="#999999">
            <g id="Artist-Information" transform="translate(90.000000, 420.000000)">
                <g id="Information" transform="translate(0.000000, 301.000000)">
                    <g id="Icon" transform="translate(20.000000, 18.000000)">
                        <g id="schedule" transform="translate(0.000000, 145.000000)">
                            <path d="M6,0 C2.7,0 0,2.7 0,6 C0,9.3 2.7,12 6,12 C9.3,12 12,9.3 12,6 C12,2.7 9.3,0 6,0 L6,0 Z M6,10.8 C3.36,10.8 1.2,8.64 1.2,6 C1.2,3.36 3.36,1.2 6,1.2 C8.64,1.2 10.8,3.36 10.8,6 C10.8,8.64 8.64,10.8 6,10.8 L6,10.8 Z" id="Shape"></path>
                            <polygon id="Shape" points="6.3 3 5.4 3 5.4 6.6 8.52 8.52 9 7.74 6.3 6.12"></polygon>
                        </g>
                    </g>
                </g>
            </g>
        </g>
    </g>
</svg>
